assets/images/hanami_logo.svg

<?xml version="1.0" encoding="UTF-8"?>
<svg width="820px" height="177px" viewBox="0 0 820 177" version="1.1" xmlns="http://www.w3.org/2000/svg" xmlns:xlink="http://www.w3.org/1999/xlink">
    <title>hanami_logo</title>
    <defs>
        <path d="M122.600988,31.826 L122.600988,40.942 C122.600988,45.44 121.665588,49.722 119.978788,53.604 C123.148788,50.8 126.932188,48.586 131.210588,47.196 L139.879388,44.38 C156.585588,38.952 174.555788,48.108 179.983788,64.814 C185.411988,81.52 176.255788,99.49 159.549588,104.918 L150.880788,107.736 C146.602388,109.126 142.240988,109.56 138.028588,109.154 C141.674388,111.302 144.947988,114.218 147.592188,117.856 L152.949788,125.23 C163.274788,139.442 160.119788,159.362 145.908588,169.686 C131.697588,180.012 111.777588,176.856 101.452588,162.646 L96.0949879,155.272 C93.4507879,151.632 91.6905879,147.618 90.7737879,143.486 C89.8571879,147.618 88.0969879,151.632 85.4527879,155.272 L80.0951879,162.646 C69.7701879,176.856 49.8501879,180.012 35.6389879,169.686 C21.4279879,159.362 18.2729879,139.442 28.5979879,125.23 L33.9555879,117.856 C36.5997879,114.218 39.8733879,111.302 43.5191879,109.154 C39.3067879,109.56 34.9453879,109.126 30.6669879,107.736 L21.9981879,104.918 C5.29204794,99.49 -3.86423206,81.52 1.56390794,64.814 C6.99204794,48.108 24.9621879,38.952 41.6683879,44.38 L50.3371879,47.196 C54.6155879,48.586 58.3989879,50.8 61.5687879,53.604 C59.8821879,49.722 58.9467879,45.44 58.9467879,40.942 L58.9467879,31.826 C58.9467879,14.26 73.2079879,0 90.7737879,0 C108.339788,0 122.600988,14.26 122.600988,31.826 Z M423.231588,107.618 L423.231588,125.72 C423.231588,131.864 425.391588,133.026 431.037588,132.86 L431.037588,156.11 C426.387588,157.272 423.897588,157.936 417.087588,157.936 C405.297588,157.936 398.321588,153.12 395.167588,145.814 C390.351588,152.954 381.715588,158.102 367.433588,158.102 C349.333588,158.102 337.375588,149.3 337.375588,133.69 C337.375588,115.756 352.487588,107.12 378.559588,103.964 L391.347588,102.47 L391.347588,100.81 C391.347588,93.834 388.689588,90.348 381.715588,90.348 C375.571588,90.348 372.083588,93.336 371.751588,99.812 L340.365588,99.812 C340.365588,77.892 355.809588,69.754 382.545588,69.754 C414.099588,69.754 423.231588,87.69 423.231588,107.618 Z M615.205588,107.618 L615.205588,125.72 C615.205588,131.864 617.363588,133.026 623.011588,132.86 L623.011588,156.11 C618.361588,157.272 615.869588,157.936 609.061588,157.936 C597.269588,157.936 590.295588,153.12 587.139588,145.814 C582.323588,152.954 573.689588,158.102 559.407588,158.102 C541.305588,158.102 529.349588,149.3 529.349588,133.69 C529.349588,115.756 544.461588,107.12 570.533588,103.964 L583.321588,102.47 L583.321588,100.81 C583.321588,93.834 580.663588,90.348 573.689588,90.348 C567.543588,90.348 564.057588,93.336 563.725588,99.812 L532.337588,99.812 C532.337588,77.892 547.781588,69.754 574.519588,69.754 C606.071588,69.754 615.205588,87.69 615.205588,107.618 Z M526.193588,104.628 L526.193588,156.11 L492.979588,156.11 L492.979588,112.6 C492.979588,101.64 489.493588,96.824 482.185588,96.824 C474.381588,96.824 468.235588,102.47 468.235588,113.928 L468.235588,156.11 L435.023588,156.11 L435.023588,71.748 L463.919588,71.748 L465.745588,83.372 C472.885588,73.906 482.683588,69.754 495.637588,69.754 C516.395588,69.754 526.193588,83.372 526.193588,104.628 Z M263.973588,86.196 L300.011588,86.196 L300.011588,43.184 L334.553588,43.184 L334.553588,156.11 L300.011588,156.11 L300.011588,115.424 L263.973588,115.424 L263.973588,156.11 L229.431588,156.11 L229.431588,43.184 L263.973588,43.184 Z M776.123588,104.628 L776.123588,156.11 L742.911588,156.11 L742.911588,112.6 C742.911588,101.64 739.423588,96.824 732.115588,96.824 C724.145588,96.824 718.167588,102.47 718.167588,113.928 L718.167588,156.11 L684.953588,156.11 L684.953588,112.6 C684.953588,101.64 681.465588,96.824 674.159588,96.824 C666.353588,96.824 660.209588,102.47 660.209588,113.928 L660.209588,156.11 L626.995588,156.11 L626.995588,71.748 L655.891588,71.748 L657.717588,83.372 C665.025588,74.072 674.657588,69.754 687.609588,69.754 C700.231588,69.754 708.867588,74.736 713.683588,83.538 C721.985588,73.74 732.281588,69.754 745.567588,69.754 C766.325588,69.754 776.123588,83.372 776.123588,104.628 Z M816.810988,156.11 L783.597588,156.11 L783.597588,71.7482 L816.810988,71.7482 Z M383.541588,120.738 C373.743588,121.9 369.925588,124.888 369.925588,129.372 C369.925588,133.69 372.581588,136.182 378.227588,136.182 C385.867588,136.182 391.347588,130.036 391.347588,121.236 L391.347588,119.906 Z M575.515588,120.738 C565.717588,121.9 561.897588,124.888 561.897588,129.372 C561.897588,133.69 564.555588,136.182 570.201588,136.182 C577.839588,136.182 583.321588,130.036 583.321588,121.236 L583.321588,119.906 Z M819.135588,45.176 C819.135588,55.14 811.329588,61.286 800.203588,61.286 C789.077588,61.286 781.271588,55.14 781.271588,45.176 C781.271588,35.046 789.077588,29.068 800.203588,29.068 C811.329588,29.068 819.135588,35.046 819.135588,45.176 Z" id="path-1"></path>
    </defs>
    <g id="hanami_logo" stroke="none" fill="none" transform="translate(0.2864, 0.942)" xlink:href="#path-1" fill-rule="evenodd" stroke-width="1">
        <g id="hanami_icon" transform="translate(-0, 0)">
            <path d="M43.5191879,109.154 C39.3067879,109.56 34.9453879,109.126 30.6669879,107.736 L21.9981879,104.918 C5.29204794,99.49 -3.86423206,81.52 1.56390794,64.814 C6.99204794,48.108 24.9621879,38.952 41.6683879,44.38 L50.3371879,47.196 C54.6155879,48.586 58.3989879,50.8 61.5687879,53.604 C59.8821879,49.722 58.9467879,45.44 58.9467879,40.942 L58.9467879,31.826 C58.9467879,14.26 73.2079879,0 90.7737879,0 C108.339788,0 122.600988,14.26 122.600988,31.826 L122.600988,40.942 C122.600988,45.44 121.665588,49.722 119.978788,53.604 C123.148788,50.8 126.932188,48.586 131.210588,47.196 L139.879388,44.38 C156.585588,38.952 174.555788,48.108 179.983788,64.814 C185.411988,81.52 176.255788,99.49 159.549588,104.918 L150.880788,107.736 C146.602388,109.126 142.240988,109.56 138.028588,109.154 C141.674388,111.302 144.947988,114.218 147.592188,117.856 L152.949788,125.23 C163.274788,139.442 160.119788,159.362 145.908588,169.686 C131.697588,180.012 111.777588,176.856 101.452588,162.646 L96.0949879,155.272 C93.4507879,151.632 91.6905879,147.618 90.7737879,143.486 C89.8571879,147.618 88.0969879,151.632 85.4527879,155.272 L80.0951879,162.646 C69.7701879,176.856 49.8501879,180.012 35.6389879,169.686 C21.4279879,159.362 18.2729879,139.442 28.5979879,125.23 L33.9555879,117.856 C36.5997879,114.218 39.8733879,111.302 43.5191879,109.154 Z" id="Fill-15" fill="#FF6C89"></path>
            <path d="M90.7737879,51.854 C113.290588,51.854 131.571388,70.134 131.571388,92.652 C131.571388,115.168 113.290588,133.45 90.7737879,133.45 C68.2571879,133.45 49.9763879,115.168 49.9763879,92.652 C49.9763879,70.134 68.2571879,51.854 90.7737879,51.854 Z" id="Fill-22" fill="#FFC9C4"></path>
            <path d="M70.6265879,91.88 C70.6265879,93.582 69.2439879,94.966 67.5409879,94.966 C65.8381879,94.966 64.4555879,93.582 64.4555879,91.88 C64.4555879,85.762 69.4219879,80.796 75.5393879,80.796 C81.6565879,80.796 86.6231879,85.762 86.6231879,91.88 C86.6231879,93.582 85.2405879,94.966 83.5375879,94.966 C81.8345879,94.966 80.4519879,93.582 80.4519879,91.88 C80.4519879,89.168 78.2507879,86.968 75.5393879,86.968 C72.8279879,86.968 70.6265879,89.168 70.6265879,91.88 Z" id="Fill-36" fill="#000000"></path>
            <path d="M101.172988,91.88 C101.172988,93.582 99.7903879,94.966 98.0875879,94.966 C96.3845879,94.966 95.0019879,93.582 95.0019879,91.88 C95.0019879,85.762 99.9683879,80.796 106.085788,80.796 C112.203188,80.796 117.169588,85.762 117.169588,91.88 C117.169588,93.582 115.786988,94.966 114.083988,94.966 C112.380988,94.966 110.998388,93.582 110.998388,91.88 C110.998388,89.168 108.797188,86.968 106.085788,86.968 C103.374388,86.968 101.172988,89.168 101.172988,91.88 Z" id="Fill-37" fill="#000000"></path>
        </g>
        <g id="hanami_icon" transform="translate(229.4316, 29.068)" fill="#FF6C89">
            <polygon id="Fill-23" points="70.58 127.042 105.122 127.042 105.122 14.116 70.58 14.116 70.58 57.128 34.542 57.128 34.542 14.116 0 14.116 0 127.042 34.542 127.042 34.542 86.356 70.58 86.356"></polygon>
            <path d="M138.002,129.034 C152.284,129.034 160.92,123.886 165.736,116.746 C168.89,124.052 175.866,128.868 187.656,128.868 C194.466,128.868 196.956,128.204 201.606,127.042 L201.606,103.792 C195.96,103.958 193.8,102.796 193.8,96.652 L193.8,78.55 C193.8,58.622 184.668,40.686 153.114,40.686 C126.378,40.686 110.934,48.824 110.934,70.744 L142.32,70.744 C142.652,64.268 146.14,61.28 152.284,61.28 C159.258,61.28 161.916,64.766 161.916,71.742 L161.916,73.402 L149.128,74.896 C123.056,78.052 107.944,86.688 107.944,104.622 C107.944,120.232 119.902,129.034 138.002,129.034 Z M140.494,100.304 C140.494,95.82 144.312,92.832 154.11,91.67 L161.916,90.838 L161.916,92.168 C161.916,100.968 156.436,107.114 148.796,107.114 C143.15,107.114 140.494,104.622 140.494,100.304 Z" id="Fill-24"></path>
            <path d="M205.592,127.042 L238.804,127.042 L238.804,84.86 C238.804,73.402 244.95,67.756 252.754,67.756 C260.062,67.756 263.548,72.572 263.548,83.532 L263.548,127.042 L296.762,127.042 L296.762,75.56 C296.762,54.304 286.964,40.686 266.206,40.686 C253.252,40.686 243.454,44.838 236.314,54.304 L234.488,42.68 L205.592,42.68 L205.592,127.042 Z" id="Fill-25"></path>
            <path d="M329.976,129.034 C344.258,129.034 352.892,123.886 357.708,116.746 C360.864,124.052 367.838,128.868 379.63,128.868 C386.438,128.868 388.93,128.204 393.58,127.042 L393.58,103.792 C387.932,103.958 385.774,102.796 385.774,96.652 L385.774,78.55 C385.774,58.622 376.64,40.686 345.088,40.686 C318.35,40.686 302.906,48.824 302.906,70.744 L334.294,70.744 C334.626,64.268 338.112,61.28 344.258,61.28 C351.232,61.28 353.89,64.766 353.89,71.742 L353.89,73.402 L341.102,74.896 C315.03,78.052 299.918,86.688 299.918,104.622 C299.918,120.232 311.874,129.034 329.976,129.034 Z M332.466,100.304 C332.466,95.82 336.286,92.832 346.084,91.67 L353.89,90.838 L353.89,92.168 C353.89,100.968 348.408,107.114 340.77,107.114 C335.124,107.114 332.466,104.622 332.466,100.304 Z" id="Fill-26"></path>
            <path d="M397.564,127.042 L430.778,127.042 L430.778,84.86 C430.778,73.402 436.922,67.756 444.728,67.756 C452.034,67.756 455.522,72.572 455.522,83.532 L455.522,127.042 L488.736,127.042 L488.736,84.86 C488.736,73.402 494.714,67.756 502.684,67.756 C509.992,67.756 513.48,72.572 513.48,83.532 L513.48,127.042 L546.692,127.042 L546.692,75.56 C546.692,54.304 536.894,40.686 516.136,40.686 C502.85,40.686 492.554,44.672 484.252,54.47 C479.436,45.668 470.8,40.686 458.178,40.686 C445.226,40.686 435.594,45.004 428.286,54.304 L426.46,42.68 L397.564,42.68 L397.564,127.042 Z" id="Fill-27"></path>
            <path d="M554.166,127.042 L587.3794,127.042 L587.3794,42.6802 L554.166,42.6802 L554.166,127.042 Z M570.772,32.218 C581.898,32.218 589.704,26.072 589.704,16.108 C589.704,5.978 581.898,0 570.772,0 C559.646,0 551.84,5.978 551.84,16.108 C551.84,26.072 559.646,32.218 570.772,32.218 Z" id="Fill-28"></path>
        </g>
    </g>
</svg>

<svg height="177" viewBox="0 0 820 177" width="820" xmlns="http://www.w3.org/2000/svg" xmlns:xlink="http://www.w3.org/1999/xlink"><defs><path id="a" d="m122.600988 31.826v9.116c0 4.498-.9354 8.78-2.6222 12.662 3.17-2.804 6.9534-5.018 11.2318-6.408l8.6688-2.816c16.7062-5.428 34.6764 3.728 40.1044 20.434 5.4282 16.706-3.728 34.676-20.4342 40.104l-8.6688 2.818c-4.2784 1.39-8.6398 1.824-12.8522 1.418 3.6458 2.148 6.9194 5.064 9.5636 8.702l5.3576 7.374c10.325 14.212 7.17 34.132-7.0412 44.456-14.211 10.326-34.131 7.17-44.456-7.04l-5.3576001-7.374c-2.6442-3.64-4.4044-7.654-5.3212-11.786-.9166 4.132-2.6768 8.146-5.321 11.786l-5.3576 7.374c-10.325 14.21-30.245 17.366-44.4562 7.04-14.211-10.324-17.366-30.244-7.041-44.456l5.3576-7.374c2.6442-3.638 5.9178-6.554 9.5636-8.702-4.2124.406-8.5738-.028-12.8522-1.418l-8.6688-2.818c-16.70613996-5.428-25.86241996-23.398-20.43427996-40.104s23.39827996-25.862 40.10447996-20.434l8.6688 2.816c4.2784 1.39 8.0618 3.604 11.2316 6.408-1.6866-3.882-2.622-8.164-2.622-12.662v-9.116c0-17.566 14.2612-31.826 31.827-31.826 17.5660001 0 31.8272001 14.26 31.8272001 31.826zm300.6306 75.792v18.102c0 6.144 2.16 7.306 7.806 7.14v23.25c-4.65 1.162-7.14 1.826-13.95 1.826-11.79 0-18.766-4.816-21.92-12.122-4.816 7.14-13.452 12.288-27.734 12.288-18.1 0-30.058-8.802-30.058-24.412 0-17.934 15.112-26.57 41.184-29.726l12.788-1.494v-1.66c0-6.976-2.658-10.462-9.632-10.462-6.144 0-9.632 2.988-9.964 9.464h-31.386c0-21.92 15.444-30.058 42.18-30.058 31.554 0 40.686 17.936 40.686 37.864zm191.974 0v18.102c0 6.144 2.158 7.306 7.806 7.14v23.25c-4.65 1.162-7.142 1.826-13.95 1.826-11.792 0-18.766-4.816-21.922-12.122-4.816 7.14-13.45 12.288-27.732 12.288-18.102 0-30.058-8.802-30.058-24.412 0-17.934 15.112-26.57 41.184-29.726l12.788-1.494v-1.66c0-6.976-2.658-10.462-9.632-10.462-6.146 0-9.632 2.988-9.964 9.464h-31.388c0-21.92 15.444-30.058 42.182-30.058 31.552 0 40.686 17.936 40.686 37.864zm-89.012-2.99v51.482h-33.214v-43.51c0-10.96-3.486-15.776-10.794-15.776-7.804 0-13.95 5.646-13.95 17.104v42.182h-33.212v-84.362h28.896l1.826 11.624c7.14-9.466 16.938-13.618 29.892-13.618 20.758 0 30.556 13.618 30.556 34.874zm-262.22-18.432h36.038v-43.012h34.542v112.926h-34.542v-40.686h-36.038v40.686h-34.542v-112.926h34.542zm512.15 18.432v51.482h-33.212v-43.51c0-10.96-3.488-15.776-10.796-15.776-7.97 0-13.948 5.646-13.948 17.104v42.182h-33.214v-43.51c0-10.96-3.488-15.776-10.794-15.776-7.806 0-13.95 5.646-13.95 17.104v42.182h-33.214v-84.362h28.896l1.826 11.624c7.308-9.3 16.94-13.618 29.892-13.618 12.622 0 21.258 4.982 26.074 13.784 8.302-9.798 18.598-13.784 31.884-13.784 20.758 0 30.556 13.618 30.556 34.874zm40.6874 51.482h-33.2134v-84.3618h33.2134zm-433.2694-35.372c-9.798 1.162-13.616 4.15-13.616 8.634 0 4.318 2.656 6.81 8.302 6.81 7.64 0 13.12-6.146 13.12-14.946v-1.33zm191.974 0c-9.798 1.162-13.618 4.15-13.618 8.634 0 4.318 2.658 6.81 8.304 6.81 7.638 0 13.12-6.146 13.12-14.946v-1.33zm243.62-75.562c0 9.964-7.806 16.11-18.932 16.11s-18.932-6.146-18.932-16.11c0-10.13 7.806-16.108 18.932-16.108s18.932 5.978 18.932 16.108z"/></defs><g fill="none" fill-rule="evenodd" xlink:href="#a"><g transform="translate(.2864 .942)"><path d="m43.5191879 109.154c-4.2124.406-8.5738-.028-12.8522-1.418l-8.6688-2.818c-16.70613996-5.428-25.86241996-23.398-20.43427996-40.104s23.39827996-25.862 40.10447996-20.434l8.6688 2.816c4.2784 1.39 8.0618 3.604 11.2316 6.408-1.6866-3.882-2.622-8.164-2.622-12.662v-9.116c0-17.566 14.2612-31.826 31.827-31.826 17.5660001 0 31.8272001 14.26 31.8272001 31.826v9.116c0 4.498-.9354 8.78-2.6222 12.662 3.17-2.804 6.9534-5.018 11.2318-6.408l8.6688-2.816c16.7062-5.428 34.6764 3.728 40.1044 20.434 5.4282 16.706-3.728 34.676-20.4342 40.104l-8.6688 2.818c-4.2784 1.39-8.6398 1.824-12.8522 1.418 3.6458 2.148 6.9194 5.064 9.5636 8.702l5.3576 7.374c10.325 14.212 7.17 34.132-7.0412 44.456-14.211 10.326-34.131 7.17-44.456-7.04l-5.3576001-7.374c-2.6442-3.64-4.4044-7.654-5.3212-11.786-.9166 4.132-2.6768 8.146-5.321 11.786l-5.3576 7.374c-10.325 14.21-30.245 17.366-44.4562 7.04-14.211-10.324-17.366-30.244-7.041-44.456l5.3576-7.374c2.6442-3.638 5.9178-6.554 9.5636-8.702z" fill="#ff6c89"/><path d="m90.7737879 51.854c22.5168001 0 40.7976001 18.28 40.7976001 40.798 0 22.516-18.2808 40.798-40.7976001 40.798-22.5166 0-40.7974-18.282-40.7974-40.798 0-22.518 18.2808-40.798 40.7974-40.798z" fill="#ffc9c4"/><g fill="#000"><path d="m70.6265879 91.88c0 1.702-1.3826 3.086-3.0856 3.086-1.7028 0-3.0854-1.384-3.0854-3.086 0-6.118 4.9664-11.084 11.0838-11.084 6.1172 0 11.0838 4.966 11.0838 11.084 0 1.702-1.3826 3.086-3.0856 3.086s-3.0856-1.384-3.0856-3.086c0-2.712-2.2012-4.912-4.9126-4.912s-4.9128 2.2-4.9128 4.912z"/><path d="m101.172988 91.88c0 1.702-1.3826001 3.086-3.0854001 3.086-1.703 0-3.0856-1.384-3.0856-3.086 0-6.118 4.9664-11.084 11.0838001-11.084 6.1174 0 11.0838 4.966 11.0838 11.084 0 1.702-1.3826 3.086-3.0856 3.086s-3.0856-1.384-3.0856-3.086c0-2.712-2.2012-4.912-4.9126-4.912s-4.9128 2.2-4.9128 4.912z"/></g></g><g fill="#ff6c89" transform="translate(229.718 30.01)"><path d="m70.58 127.042h34.542v-112.926h-34.542v43.012h-36.038v-43.012h-34.542v112.926h34.542v-40.686h36.038z"/><path d="m138.002 129.034c14.282 0 22.918-5.148 27.734-12.288 3.154 7.306 10.13 12.122 21.92 12.122 6.81 0 9.3-.664 13.95-1.826v-23.25c-5.646.166-7.806-.996-7.806-7.14v-18.102c0-19.928-9.132-37.864-40.686-37.864-26.736 0-42.18 8.138-42.18 30.058h31.386c.332-6.476 3.82-9.464 9.964-9.464 6.974 0 9.632 3.486 9.632 10.462v1.66l-12.788 1.494c-26.072 3.156-41.184 11.792-41.184 29.726 0 15.61 11.958 24.412 30.058 24.412zm2.492-28.73c0-4.484 3.818-7.472 13.616-8.634l7.806-.832v1.33c0 8.8-5.48 14.946-13.12 14.946-5.646 0-8.302-2.492-8.302-6.81z"/><path d="m205.592 127.042h33.212v-42.182c0-11.458 6.146-17.104 13.95-17.104 7.308 0 10.794 4.816 10.794 15.776v43.51h33.214v-51.482c0-21.256-9.798-34.874-30.556-34.874-12.954 0-22.752 4.152-29.892 13.618l-1.826-11.624h-28.896z"/><path d="m329.976 129.034c14.282 0 22.916-5.148 27.732-12.288 3.156 7.306 10.13 12.122 21.922 12.122 6.808 0 9.3-.664 13.95-1.826v-23.25c-5.648.166-7.806-.996-7.806-7.14v-18.102c0-19.928-9.134-37.864-40.686-37.864-26.738 0-42.182 8.138-42.182 30.058h31.388c.332-6.476 3.818-9.464 9.964-9.464 6.974 0 9.632 3.486 9.632 10.462v1.66l-12.788 1.494c-26.072 3.156-41.184 11.792-41.184 29.726 0 15.61 11.956 24.412 30.058 24.412zm2.49-28.73c0-4.484 3.82-7.472 13.618-8.634l7.806-.832v1.33c0 8.8-5.482 14.946-13.12 14.946-5.646 0-8.304-2.492-8.304-6.81z"/><path d="m397.564 127.042h33.214v-42.182c0-11.458 6.144-17.104 13.95-17.104 7.306 0 10.794 4.816 10.794 15.776v43.51h33.214v-42.182c0-11.458 5.978-17.104 13.948-17.104 7.308 0 10.796 4.816 10.796 15.776v43.51h33.212v-51.482c0-21.256-9.798-34.874-30.556-34.874-13.286 0-23.582 3.986-31.884 13.784-4.816-8.802-13.452-13.784-26.074-13.784-12.952 0-22.584 4.318-29.892 13.618l-1.826-11.624h-28.896z"/><path d="m554.166 127.042h33.2134v-84.3618h-33.2134zm16.606-94.824c11.126 0 18.932-6.146 18.932-16.11 0-10.13-7.806-16.108-18.932-16.108s-18.932 5.978-18.932 16.108c0 9.964 7.806 16.11 18.932 16.11z"/></g></g></svg>
